icons/src/scalable/default/categories/characters-bullet-symbolic.svg

<?xml version="1.0" encoding="UTF-8" standalone="no"?>
<!-- Created with Inkscape (http://www.inkscape.org/) -->

<svg
   sodipodi:docname="characters-bullet-symbolic.svg"
   height="16"
   id="svg5504"
   inkscape:version="1.1 (ce6663b3b7, 2021-05-25)"
   version="1.1"
   width="16"
   xmlns:inkscape="http://www.inkscape.org/namespaces/inkscape"
   xmlns:sodipodi="http://sodipodi.sourceforge.net/DTD/sodipodi-0.dtd"
   xmlns="http://www.w3.org/2000/svg"
   xmlns:svg="http://www.w3.org/2000/svg"
   xmlns:rdf="http://www.w3.org/1999/02/22-rdf-syntax-ns#"
   xmlns:cc="http://creativecommons.org/ns#"
   xmlns:dc="http://purl.org/dc/elements/1.1/">
  <defs
     id="defs5506" />
  <sodipodi:namedview
     inkscape:bbox-paths="true"
     bordercolor="#666666"
     borderopacity="1.0"
     inkscape:current-layer="layer1"
     inkscape:cx="12.087053"
     inkscape:cy="9.8437499"
     inkscape:document-units="px"
     gridtolerance="10"
     id="base"
     pagecolor="#ffffff"
     inkscape:pageopacity="0"
     inkscape:pageshadow="2"
     showborder="true"
     showgrid="true"
     inkscape:showpageshadow="true"
     inkscape:snap-bbox="true"
     inkscape:snap-global="true"
     inkscape:window-height="1043"
     inkscape:window-maximized="1"
     inkscape:window-width="1920"
     inkscape:window-x="1920"
     inkscape:window-y="0"
     inkscape:zoom="44.8"
     inkscape:pagecheckerboard="0"
     inkscape:bbox-nodes="true"
     inkscape:snap-bbox-edge-midpoints="true"
     inkscape:snap-bbox-midpoints="true"
     inkscape:object-paths="true"
     inkscape:snap-intersection-paths="true"
     inkscape:snap-smooth-nodes="true"
     inkscape:snap-midpoints="true"
     inkscape:snap-object-midpoints="true">
    <inkscape:grid
       empspacing="2"
       enabled="true"
       id="grid5512"
       originx="-27"
       originy="-1164"
       snapvisiblegridlinesonly="true"
       type="xygrid"
       visible="true"
       spacingx="1"
       spacingy="1" />
  </sodipodi:namedview>
  <metadata
     id="metadata5509">
    <rdf:RDF>
      <cc:Work
         rdf:about="">
        <dc:format>image/svg+xml</dc:format>
        <dc:type
           rdf:resource="http://purl.org/dc/dcmitype/StillImage" />
      </cc:Work>
    </rdf:RDF>
  </metadata>
  <g
     inkscape:groupmode="layer"
     id="layer1"
     inkscape:label="categories"
     transform="translate(-27,127.6378)">
    <path
       id="path868"
       style="fill:#363636;fill-rule:evenodd;stroke-width:2;stroke-linecap:round;stroke-linejoin:round;fill-opacity:1"
       d="M 7.5 1 A 1.5 1.5 0 0 0 6 2.5 A 1.5 1.5 0 0 0 7 3.9101562 L 7 7.1328125 L 4.2089844 5.5214844 A 1.5 1.5 0 0 0 3.4863281 3.9511719 A 1.5 1.5 0 0 0 1.4375 4.5 A 1.5 1.5 0 0 0 1.9863281 6.5488281 A 1.5 1.5 0 0 0 3.7089844 6.3886719 L 6.5 8 L 3.7089844 9.6113281 A 1.5 1.5 0 0 0 1.9863281 9.4511719 A 1.5 1.5 0 0 0 1.4375 11.5 A 1.5 1.5 0 0 0 3.4863281 12.048828 A 1.5 1.5 0 0 0 4.2109375 10.476562 L 7 8.8671875 L 7 12.089844 A 1.5 1.5 0 0 0 6 13.5 A 1.5 1.5 0 0 0 7.5 15 A 1.5 1.5 0 0 0 9 13.5 A 1.5 1.5 0 0 0 8 12.085938 L 8 8.8671875 L 10.791016 10.478516 A 1.5 1.5 0 0 0 11.513672 12.048828 A 1.5 1.5 0 0 0 13.5625 11.5 A 1.5 1.5 0 0 0 13.013672 9.4511719 A 1.5 1.5 0 0 0 11.289062 9.609375 L 8.5019531 8 L 11.291016 6.3886719 A 1.5 1.5 0 0 0 13.013672 6.5488281 A 1.5 1.5 0 0 0 13.5625 4.5 A 1.5 1.5 0 0 0 11.513672 3.9511719 A 1.5 1.5 0 0 0 10.791016 5.5214844 L 8 7.1328125 L 8 3.9101562 A 1.5 1.5 0 0 0 9 2.5 A 1.5 1.5 0 0 0 7.5 1 z "
       transform="translate(27,-127.6378)" />
  </g>
</svg>

<svg version="1.1" viewBox="0 0 16 16" xmlns="http://www.w3.org/2000/svg">
 <g transform="translate(-27 127.64)">
  <path transform="translate(27 -127.64)" d="m7.5 1a1.5 1.5 0 0 0-1.5 1.5 1.5 1.5 0 0 0 1 1.4102v3.2227l-2.791-1.6113a1.5 1.5 0 0 0-0.72266-1.5703 1.5 1.5 0 0 0-2.0488 0.54883 1.5 1.5 0 0 0 0.54883 2.0488 1.5 1.5 0 0 0 1.7227-0.16016l2.791 1.6113-2.791 1.6113a1.5 1.5 0 0 0-1.7227-0.16016 1.5 1.5 0 0 0-0.54883 2.0488 1.5 1.5 0 0 0 2.0488 0.54883 1.5 1.5 0 0 0 0.72461-1.5723l2.7891-1.6094v3.2227a1.5 1.5 0 0 0-1 1.4102 1.5 1.5 0 0 0 1.5 1.5 1.5 1.5 0 0 0 1.5-1.5 1.5 1.5 0 0 0-1-1.4141v-3.2188l2.791 1.6113a1.5 1.5 0 0 0 0.72266 1.5703 1.5 1.5 0 0 0 2.0488-0.54883 1.5 1.5 0 0 0-0.54883-2.0488 1.5 1.5 0 0 0-1.7246 0.1582l-2.7871-1.6094 2.7891-1.6113a1.5 1.5 0 0 0 1.7227 0.16016 1.5 1.5 0 0 0 0.54883-2.0488 1.5 1.5 0 0 0-2.0488-0.54883 1.5 1.5 0 0 0-0.72266 1.5703l-2.791 1.6113v-3.2227a1.5 1.5 0 0 0 1-1.4102 1.5 1.5 0 0 0-1.5-1.5z" fill="#363636" fill-rule="evenodd" stroke-linecap="round" stroke-linejoin="round" stroke-width="2"/>
 </g>
</svg>
